public/dd-logo.svg

<svg fill="none" height="88" viewBox="0 0 165 88" width="165" xmlns="http://www.w3.org/2000/svg"><path d="m0 40.3343c0-6.9226 3.57991-13.353 9.46412-16.9998l2.03588-1.2618.6844-20.14062c.0366-1.077507.9207-1.93208 1.9988-1.93208h9.6336c1.0781 0 1.9622.854571 1.9988 1.93208l.6844 20.14062 2.0359 1.2618c5.8842 3.6468 9.4641 10.0772 9.4641 16.9999v43.6656c0 2.2091-1.7909 4-4 4h-30c-2.20914 0-4-1.7909-4-4z" fill="#362929"/><path d="m0 42h165v26h-165z" fill="#ffc700"/><g fill="#362929"><path d="m4.7998 63.5v-17.52h5.208c1.184 0 2.208.224 3.072.672.88.448 1.56 1.08 2.04 1.896s.72 1.784.72 2.904v6.552c0 1.104-.24 2.072-.72 2.904-.48.816-1.16 1.456-2.04 1.92-.864.448-1.888.672-3.072.672zm3-2.76h2.208c.864 0 1.552-.24 2.064-.72.512-.496.768-1.168.768-2.016v-6.552c0-.832-.256-1.488-.768-1.968-.512-.496-1.2-.744-2.064-.744h-2.208z"/><path d="m19.5504 63.5v-2.64h3.528v-12.24h-3.528v-2.64h10.08v2.64h-3.528v12.24h3.528v2.64z"/><path d="m34.2531 63.5v-17.52h3v14.736h7.44v2.784z"/><path d="m48.6437 63.5v-17.52h3v14.736h7.44v2.784z"/><path d="m62.7223 63.5v-2.64h3.528v-12.24h-3.528v-2.64h10.08v2.64h-3.528v12.24h3.528v2.64z"/><path d="m91.1436 63.5v-17.52h5.208c1.184 0 2.208.224 3.072.672.8804.448 1.5604 1.08 2.0404 1.896s.72 1.784.72 2.904v6.552c0 1.104-.24 2.072-.72 2.904-.48.816-1.16 1.456-2.0404 1.92-.864.448-1.888.672-3.072.672zm3-2.76h2.208c.864 0 1.5519-.24 2.064-.72.512-.496.768-1.168.768-2.016v-6.552c0-.832-.256-1.488-.768-1.968-.5121-.496-1.2-.744-2.064-.744h-2.208z"/><path d="m104.574 63.5 4.416-17.52h3.864l4.44 17.52h-3.072l-.96-4.248h-4.656l-.96 4.248zm4.584-6.696h3.552l-1.056-4.704c-.176-.784-.328-1.488-.456-2.112-.128-.64-.216-1.104-.264-1.392-.048.288-.136.752-.264 1.392-.112.624-.264 1.32-.456 2.088z"/><path d="m118.965 63.5 4.416-17.52h3.864l4.44 17.52h-3.072l-.96-4.248h-4.656l-.96 4.248zm4.584-6.696h3.552l-1.056-4.704c-.176-.784-.328-1.488-.456-2.112-.128-.64-.216-1.104-.264-1.392-.048.288-.136.752-.264 1.392-.112.624-.264 1.32-.456 2.088z"/><path d="m134.339 63.5v-17.52h5.544c1.168 0 2.176.216 3.024.648.864.432 1.536 1.04 2.016 1.824.48.768.72 1.68.72 2.736 0 1.152-.296 2.168-.888 3.048-.576.88-1.36 1.504-2.352 1.872l3.48 7.392h-3.36l-3.048-6.96h-2.136v6.96zm3-9.6h2.544c.848 0 1.512-.232 1.992-.696s.72-1.104.72-1.92c0-.832-.24-1.48-.72-1.944-.48-.48-1.144-.72-1.992-.72h-2.544z"/><path d="m154.106 63.74c-1.712 0-3.056-.464-4.032-1.392-.96-.944-1.44-2.224-1.44-3.84v-12.528h3.024v12.504c0 .832.208 1.48.624 1.944s1.024.696 1.824.696c.784 0 1.384-.232 1.8-.696.432-.464.648-1.112.648-1.944v-12.504h3.024v12.528c0 1.616-.48 2.896-1.44 3.84-.96.928-2.304 1.392-4.032 1.392z"/></g></svg>

<svg width="165" height="88" viewBox="0 0 165 88" fill="none" xmlns="http://www.w3.org/2000/svg">
<path d="M0 40.3343C0 33.4117 3.57991 26.9813 9.46412 23.3345L11.5 22.0727L12.1844 1.93208C12.221 0.854573 13.1051 0 14.1832 0H23.8168C24.8949 0 25.779 0.854571 25.8156 1.93208L26.5 22.0727L28.5359 23.3345C34.4201 26.9813 38 33.4117 38 40.3344V84C38 86.2091 36.2091 88 34 88H4C1.79086 88 0 86.2091 0 84V40.3343Z" fill="#362929"/>
<rect y="42" width="165" height="26" fill="#FFC700"/>
<path d="M4.7998 63.5V45.98H10.0078C11.1918 45.98 12.2158 46.204 13.0798 46.652C13.9598 47.1 14.6398 47.732 15.1198 48.548C15.5998 49.364 15.8398 50.332 15.8398 51.452V58.004C15.8398 59.108 15.5998 60.076 15.1198 60.908C14.6398 61.724 13.9598 62.364 13.0798 62.828C12.2158 63.276 11.1918 63.5 10.0078 63.5H4.7998ZM7.7998 60.74H10.0078C10.8718 60.74 11.5598 60.5 12.0718 60.02C12.5838 59.524 12.8398 58.852 12.8398 58.004V51.452C12.8398 50.62 12.5838 49.964 12.0718 49.484C11.5598 48.988 10.8718 48.74 10.0078 48.74H7.7998V60.74Z" fill="#362929"/>
<path d="M19.5504 63.5V60.86H23.0784V48.62H19.5504V45.98H29.6304V48.62H26.1024V60.86H29.6304V63.5H19.5504Z" fill="#362929"/>
<path d="M34.2531 63.5V45.98H37.2531V60.716H44.6931V63.5H34.2531Z" fill="#362929"/>
<path d="M48.6437 63.5V45.98H51.6437V60.716H59.0837V63.5H48.6437Z" fill="#362929"/>
<path d="M62.7223 63.5V60.86H66.2503V48.62H62.7223V45.98H72.8023V48.62H69.2743V60.86H72.8023V63.5H62.7223Z" fill="#362929"/>
<path d="M91.1436 63.5V45.98H96.3516C97.5356 45.98 98.5596 46.204 99.4236 46.652C100.304 47.1 100.984 47.732 101.464 48.548C101.944 49.364 102.184 50.332 102.184 51.452V58.004C102.184 59.108 101.944 60.076 101.464 60.908C100.984 61.724 100.304 62.364 99.4236 62.828C98.5596 63.276 97.5356 63.5 96.3516 63.5H91.1436ZM94.1436 60.74H96.3516C97.2156 60.74 97.9035 60.5 98.4156 60.02C98.9276 59.524 99.1836 58.852 99.1836 58.004V51.452C99.1836 50.62 98.9276 49.964 98.4156 49.484C97.9035 48.988 97.2156 48.74 96.3516 48.74H94.1436V60.74Z" fill="#362929"/>
<path d="M104.574 63.5L108.99 45.98H112.854L117.294 63.5H114.222L113.262 59.252H108.606L107.646 63.5H104.574ZM109.158 56.804H112.71L111.654 52.1C111.478 51.316 111.326 50.612 111.198 49.988C111.07 49.348 110.982 48.884 110.934 48.596C110.886 48.884 110.798 49.348 110.67 49.988C110.558 50.612 110.406 51.308 110.214 52.076L109.158 56.804Z" fill="#362929"/>
<path d="M118.965 63.5L123.381 45.98H127.245L131.685 63.5H128.613L127.653 59.252H122.997L122.037 63.5H118.965ZM123.549 56.804H127.101L126.045 52.1C125.869 51.316 125.717 50.612 125.589 49.988C125.461 49.348 125.373 48.884 125.325 48.596C125.277 48.884 125.189 49.348 125.061 49.988C124.949 50.612 124.797 51.308 124.605 52.076L123.549 56.804Z" fill="#362929"/>
<path d="M134.339 63.5V45.98H139.883C141.051 45.98 142.059 46.196 142.907 46.628C143.771 47.06 144.443 47.668 144.923 48.452C145.403 49.22 145.643 50.132 145.643 51.188C145.643 52.34 145.347 53.356 144.755 54.236C144.179 55.116 143.395 55.74 142.403 56.108L145.883 63.5H142.523L139.475 56.54H137.339V63.5H134.339ZM137.339 53.9H139.883C140.731 53.9 141.395 53.668 141.875 53.204C142.355 52.74 142.595 52.1 142.595 51.284C142.595 50.452 142.355 49.804 141.875 49.34C141.395 48.86 140.731 48.62 139.883 48.62H137.339V53.9Z" fill="#362929"/>
<path d="M154.106 63.74C152.394 63.74 151.05 63.276 150.074 62.348C149.114 61.404 148.634 60.124 148.634 58.508V45.98H151.658V58.484C151.658 59.316 151.866 59.964 152.282 60.428C152.698 60.892 153.306 61.124 154.106 61.124C154.89 61.124 155.49 60.892 155.906 60.428C156.338 59.964 156.554 59.316 156.554 58.484V45.98H159.578V58.508C159.578 60.124 159.098 61.404 158.138 62.348C157.178 63.276 155.834 63.74 154.106 63.74Z" fill="#362929"/>
</svg>
